X: 12910
T: Fickle Lad, The
R: jig
M: 6/8
K: Gmajor
|:GAB GAB|ABc AB^c|def gfg|bgb a2B|
GAB GAB|ABc AB^c|def gfg|1 baf g2G:|2 baf g2a||
b3 g3|aba a2b|c'3 f3|gag g2a|
b3 g3|aba a2b|c'3 f3|gag gfe|
|:~d3 BGB|~d3 BGB|d2B g2d|b2a gfe|
~c3 AFA|~c3AFA|1 cdc cBA|GFB GFB:|
[2cdc cBA|GAB GAB|ABc AB^c|def gfg baf g2G||

